; generated by PrusaSlicer 2.5.0 on 2022-11-11 at 08:48:37 UTC

; 

; external perimeters extrusion width = 0.45mm
; perimeters extrusion width = 0.45mm
; infill extrusion width = 0.45mm
; solid infill extrusion width = 0.45mm
; top infill extrusion width = 0.40mm
; first layer extrusion width = 0.42mm

M73 P0 R183
M73 Q0 S185
M201 X1000 Y1000 Z200 E5000 ; sets maximum accelerations, mm/sec^2
M203 X200 Y200 Z12 E120 ; sets maximum feedrates, mm / sec
M204 P1250 R1250 T1250 ; sets acceleration (P, T) and retract acceleration (R), mm/sec^2
M205 X8.00 Y8.00 Z0.40 E4.50 ; sets the jerk limits, mm/sec
M205 S0 T0 ; sets the minimum extruding and travel feed rate, mm/sec
M107
;TYPE:Custom
M862.3 P "MK3S" ; printer model check
M862.1 P0.4 ; nozzle diameter check
M115 U3.10.1 ; tell printer latest fw version
G90 ; use absolute coordinates
M83 ; extruder relative mode
M104 S230 ; set extruder temp
M140 S85 ; set bed temp
M190 S85 ; wait for bed temp
M109 S230 ; wait for extruder temp
G28 W ; home all without mesh bed level
G80 ; mesh bed leveling
G1 Z0.2 F720
G1 Y-3 F1000 ; go outside print area
G92 E0
G1 X60 E9 F1000 ; intro line
G1 X100 E12.5 F1000 ; intro line
G92 E0
M221 S95

; Don't change E values below. Excessive value can damage the printer.

M907 E538 ; set extruder motor current
G21 ; set units to millimeters
G90 ; use absolute coordinates
M83 ; use relative distances for extrusion
M900 K0.08 ; Filament gcode LA 1.5
M900 K45 ; Filament gcode LA 1.0
M107
;LAYER_CHANGE
;Z:0.2
;HEIGHT:0.2
;BEFORE_LAYER_CHANGE
G92 E0.0
;0.2


G1 E-1 F2100
G1 Z.2 F720
;AFTER_LAYER_CHANGE
;0.2
G1 Z.4
G1 X78.419 Y41.407 F10800
G1 Z.2 F720
G1 E1 F2100
M204 S800
;TYPE:Skirt/Brim
;WIDTH:0.42
G1 F1200
G1 X81.407 Y38.419 E.13247
G1 X83.088 Y37.723 E.05704
G1 X166.912 Y37.723 E2.62827
G1 X168.593 Y38.419 E.05704
G1 X171.581 Y41.407 E.13247
G1 X172.277 Y43.088 E.05704
G1 X172.277 Y166.912 E3.88245
G1 X171.581 Y168.593 E.05704
M73 P0 R182
M73 Q0 S184
G1 X168.593 Y171.581 E.13247
G1 X166.912 Y172.277 E.05704
G1 X83.088 Y172.277 E2.62827
G1 X81.407 Y171.581 E.05704
G1 X78.419 Y168.593 E.13247
G1 X77.723 Y166.912 E.05704
G1 X77.723 Y43.088 E3.88245
G1 X78.396 Y41.462 E.05516
M204 S1000
;WIPE_START
G1 F8640
G1 X81.29 Y38.537 E-.95
;WIPE_END
G1 E-.05 F2100
G1 Z.4 F720
G1 X81.055 Y42.732 F10800
G1 Z.2 F720
G1 E1 F2100
M204 S800
G1 F1200
G1 X81.087 Y42.664 E.00233
G1 X81.853 Y41.736 E.03775
G1 X82.603 Y41.117 E.03047
G1 X84.736 Y40.387 E.07067
G1 X165.189 Y40.39 E2.52257
G1 X166.209 Y40.584 E.03256
G1 X167.188 Y41 E.03333
G1 X168.312 Y41.896 E.04508
G1 X169.205 Y43.234 E.05044
G1 X169.613 Y44.779 E.05011
G1 X169.613 Y165.219 E3.77632
G1 X169.297 Y166.53 E.04229
G1 X168.913 Y167.336 E.02798
G1 X168.147 Y168.264 E.03775
G1 X167.397 Y168.883 E.03047
G1 X165.265 Y169.613 E.07066
G1 X84.781 Y169.613 E2.52351
G1 X83.47 Y169.297 E.04229
G1 X82.664 Y168.913 E.02798
G1 X81.736 Y168.147 E.03775
G1 X81.117 Y167.397 E.03047
G1 X80.387 Y165.265 E.07066
G1 X80.387 Y44.781 E3.77768
G1 X80.703 Y43.47 E.04229
G1 X81.029 Y42.786 E.02377
M204 S1000
G1 X81.368 Y42.949 F10800
M204 S800
G1 F1200
G1 X81.416 Y42.85 E.00347
G1 X82.131 Y41.991 E.03503
G1 X82.816 Y41.431 E.02774
G1 X84.767 Y40.764 E.06464
G1 X165.171 Y40.767 E2.52102
G1 X166.117 Y40.95 E.03023
G1 X167.015 Y41.336 E.03062
G1 X168.053 Y42.171 E.0418
G1 X168.849 Y43.362 E.0449
G1 X169.236 Y44.804 E.04682
G1 X169.236 Y165.196 E3.77481
G1 X168.936 Y166.42 E.03953
G1 X168.584 Y167.15 E.02541
G1 X167.869 Y168.009 E.03503
G1 X167.184 Y168.569 E.02774
G1 X165.234 Y169.236 E.06464
G1 X84.804 Y169.236 E2.52181
G1 X83.58 Y168.936 E.03953
G1 X82.85 Y168.584 E.02541
G1 X81.991 Y167.869 E.03503
G1 X81.431 Y167.184 E.02774
G1 X80.764 Y165.234 E.06464
G1 X80.764 Y44.804 E3.77598
G1 X81.064 Y43.58 E.03953
G1 X81.342 Y43.003 E.02006
M204 S1000
G1 X81.677 Y43.164 F10800
M204 S800
G1 F1200
G1 X81.721 Y43.073 E.00318
G1 X82.409 Y42.247 E.03371
G1 X83.027 Y41.745 E.02497
G1 X84.798 Y41.141 E.05865
G1 X165.152 Y41.144 E2.51946
G1 X166.024 Y41.316 E.02786
M73 P0 R181
G1 X166.84 Y41.671 E.0279
G1 X167.793 Y42.445 E.03848
G1 X168.517 Y43.543 E.04126
G1 X168.859 Y44.828 E.0417
G1 X168.859 Y165.172 E3.77331
G1 X168.575 Y166.31 E.03677
M73 Q0 S183
G1 X168.279 Y166.927 E.02145
G1 X167.591 Y167.753 E.03371
G1 X166.973 Y168.255 E.02497
G1 X165.203 Y168.859 E.05865
G1 X84.828 Y168.859 E2.5201
G1 X83.69 Y168.575 E.03677
G1 X83.073 Y168.279 E.02145
G1 X82.247 Y167.591 E.03371
G1 X81.745 Y166.973 E.02497
G1 X81.141 Y165.203 E.05865
G1 X81.141 Y44.828 E3.77427
G1 X81.425 Y43.69 E.03677
G1 X81.651 Y43.219 E.01639
M204 S1000
G1 X81.99 Y43.383 F10800
M204 S800
G1 F1200
G1 X82.05 Y43.26 E.0043
G1 X82.685 Y42.504 E.03097
G1 X83.238 Y42.059 E.02223
G1 X84.828 Y41.518 E.05269
G1 X165.133 Y41.521 E2.51789
G1 X165.929 Y41.681 E.02545
G1 X166.664 Y42.005 E.02518
G1 X167.53 Y42.717 E.03516
G1 X168.185 Y43.723 E.03763
G1 X168.482 Y44.852 E.03663
G1 X168.482 Y165.148 E3.7718
G1 X168.215 Y166.197 E.03395
G1 X167.95 Y166.74 E.01892
G1 X167.315 Y167.496 E.03097
G1 X166.762 Y167.941 E.02223
G1 X165.172 Y168.482 E.05269
G1 X84.852 Y168.482 E2.51838
G1 X83.803 Y168.215 E.03395
G1 X83.26 Y167.95 E.01892
G1 X82.504 Y167.315 E.03097
G1 X82.059 Y166.762 E.02223
G1 X81.518 Y165.172 E.05269
G1 X81.518 Y44.852 E3.77255
G1 X81.785 Y43.803 E.03395
M73 P1 R181
M73 Q1 S183
G1 X81.963 Y43.437 E.01274
M204 S1000
G1 X82.3 Y43.604 F10800
M204 S800
G1 F1200
G1 X82.377 Y43.449 E.00542
G1 X82.96 Y42.763 E.02823
G1 X83.447 Y42.375 E.01952
G1 X84.859 Y41.895 E.04678
G1 X165.114 Y41.898 E2.51634
G1 X165.796 Y42.035 E.02178
G1 X166.487 Y42.339 E.02369
G1 X167.267 Y42.988 E.03181
G1 X167.829 Y43.85 E.03225
G1 X168.105 Y44.878 E.03337
G1 X168.105 Y165.124 E3.77023
G1 X167.855 Y166.083 E.03107
G1 X167.623 Y166.551 E.01639
G1 X167.04 Y167.237 E.02823
G1 X166.553 Y167.625 E.01952
G1 X165.141 Y168.105 E.04678
G1 X84.876 Y168.105 E2.51664
G1 X83.917 Y167.855 E.03107
G1 X83.449 Y167.623 E.01639
G1 X82.763 Y167.04 E.02823
G1 X82.375 Y166.553 E.01952
G1 X81.895 Y165.141 E.04678
G1 X81.895 Y44.876 E3.77081
G1 X82.145 Y43.917 E.03107
M73 P1 R180
G1 X82.274 Y43.657 E.00909
M204 S1000
G1 X82.609 Y43.826 F10800
M204 S800
G1 F1200
G1 X82.702 Y43.64 E.00654
G1 X83.233 Y43.023 E.02551
G1 X83.654 Y42.691 E.01682
G1 X84.89 Y42.272 E.04091
G1 X165.095 Y42.276 E2.51476
G1 X165.699 Y42.4 E.01933
M73 Q1 S182
G1 X166.308 Y42.672 E.02093
G1 X167.001 Y43.257 E.02843
G1 X167.495 Y44.028 E.0287
G1 X167.728 Y44.902 E.02837
G1 X167.728 Y165.098 E3.76867
G1 X167.496 Y165.965 E.02814
G1 X167.298 Y166.36 E.01386
G1 X166.767 Y166.977 E.02551
G1 X166.346 Y167.309 E.01682
G1 X165.11 Y167.728 E.04091
G1 X84.902 Y167.728 E2.51488
G1 X84.035 Y167.496 E.02814
G1 X83.64 Y167.298 E.01386
G1 X83.023 Y166.767 E.02551
G1 X82.691 Y166.346 E.01682
G1 X82.272 Y165.11 E.04091
G1 X82.272 Y44.902 E3.76905
G1 X82.504 Y44.035 E.02814
G1 X82.582 Y43.88 E.00544
M204 S1000
G1 X82.915 Y44.051 F10800
M204 S800
G1 F1200
G1 X83.027 Y43.834 E.00765
G1 X83.505 Y43.286 E.0228
G1 X83.861 Y43.008 E.01416
G1 X84.921 Y42.649 E.0351
G1 X165.074 Y42.653 E2.51316
G1 X165.599 Y42.764 E.01682
G1 X166.127 Y43.004 E.01817
G1 X166.734 Y43.525 E.0251
G1 X167.139 Y44.156 E.02351
G1 X167.351 Y44.928 E.0251
G1 X167.351 Y165.072 E3.76704
G1 X167.138 Y165.845 E.02513
G1 X166.973 Y166.166 E.01132
G1 X166.495 Y166.714 E.0228
G1 X166.139 Y166.992 E.01416
G1 X165.079 Y167.351 E.0351
G1 X84.928 Y167.351 E2.51309
G1 X84.155 Y167.138 E.02513
G1 X83.834 Y166.973 E.01132
G1 X83.286 Y166.495 E.0228
G1 X83.008 Y166.139 E.01416
G1 X82.649 Y165.079 E.0351
G1 X82.649 Y44.928 E3.76727
G1 X82.888 Y44.104 E.02688
M204 S1000
G1 X83.219 Y44.278 F10800
M204 S800
G1 F1200
G1 X83.349 Y44.03 E.00878
G1 X83.774 Y43.55 E.02012
G1 X84.065 Y43.326 E.01151
G1 X84.952 Y43.026 E.02935
G1 X165.053 Y43.03 E2.51153
G1 X165.497 Y43.127 E.01424
G1 X165.943 Y43.334 E.01541
G1 X166.466 Y43.791 E.02178
G1 X166.785 Y44.286 E.01847
G1 X166.974 Y44.955 E.02179
G1 X166.974 Y165.045 E3.76536
G1 X166.782 Y165.722 E.02204
G1 X166.651 Y165.97 E.00878
G1 X166.226 Y166.45 E.02012
G1 X165.935 Y166.674 E.01151
G1 X165.048 Y166.974 E.02934
G1 X84.955 Y166.974 E2.51128
G1 X84.278 Y166.782 E.02204
G1 X84.03 Y166.651 E.00878
G1 X83.55 Y166.226 E.02012
G1 X83.326 Y165.935 E.01151
G1 X83.026 Y165.048 E.02934
G1 X83.026 Y44.955 E3.76545
G1 X83.202 Y44.336 E.02017
M204 S1000
M73 P1 R179
M73 Q1 S181
G1 X83.563 Y44.443 F10800
M204 S800
G1 F1200
G1 X83.669 Y44.231 E.00741
G1 X84.041 Y43.816 E.01749
G1 X84.268 Y43.645 E.00889
G1 X84.983 Y43.403 E.02367
G1 X165.031 Y43.407 E2.50986
G1 X165.391 Y43.49 E.01157
G1 X165.756 Y43.662 E.01266
G1 X166.196 Y44.054 E.01848
G1 X166.431 Y44.42 E.01362
G1 X166.597 Y44.983 E.01841
G1 X166.597 Y165.017 E3.76359
G1 X166.426 Y165.594 E.01885
G1 X166.331 Y165.769 E.00624
G1 X165.959 Y166.184 E.01749
G1 X165.732 Y166.355 E.00889
G1 X165.017 Y166.597 E.02367
G1 X84.983 Y166.597 E2.50943
G1 X84.406 Y166.426 E.01885
G1 X84.231 Y166.331 E.00624
G1 X83.816 Y165.959 E.01749
G1 X83.645 Y165.732 E.00889
G1 X83.403 Y165.017 E.02367
G1 X83.403 Y44.983 E3.7636
G1 X83.546 Y44.5 E.01578
M204 S1000
G1 X83.905 Y44.611 F10800
M204 S800
G1 F1200
G1 X83.985 Y44.438 E.006
G1 X84.306 Y44.085 E.01495
G1 X84.467 Y43.966 E.00628
G1 X85.014 Y43.78 E.0181
G1 X165.009 Y43.784 E2.5082
G1 X165.247 Y43.839 E.00767
M73 P2 R179
M73 Q2 S181
G1 X165.568 Y43.991 E.01111
G1 X165.923 Y44.315 E.01508
G1 X166.079 Y44.557 E.00902
G1 X166.22 Y45.012 E.01495
G1 X166.22 Y164.988 E3.76174
G1 X166.073 Y165.46 E.0155
G1 X166.015 Y165.562 E.0037
G1 X165.694 Y165.915 E.01495
G1 X165.533 Y166.034 E.00628
G1 X164.986 Y166.22 E.0181
G1 X85.012 Y166.22 E2.50752
G1 X84.54 Y166.073 E.0155
G1 X84.438 Y166.015 E.0037
G1 X84.085 Y165.694 E.01495
G1 X83.966 Y165.533 E.00628
G1 X83.78 Y164.986 E.0181
G1 X83.78 Y45.012 E3.76169
G1 X83.887 Y44.669 E.01129
M204 S1000
G1 X84.242 Y44.786 F10800
M204 S800
G1 F1200
G1 X84.295 Y44.652 E.0045
G1 X84.568 Y44.357 E.01261
G1 X84.663 Y44.289 E.00367
G1 X85.046 Y44.157 E.01267
G1 X164.987 Y44.161 E2.50651
G1 X165.104 Y44.188 E.00377
G1 X165.378 Y44.318 E.0095
G1 X165.647 Y44.573 E.0116
G1 X165.73 Y44.7 E.00476
G1 X165.843 Y45.044 E.01136
G1 X165.843 Y164.956 E3.75975
G1 X165.705 Y165.348 E.01303
G1 X165.432 Y165.643 E.01261
G1 X165.337 Y165.711 E.00367
G1 X164.954 Y165.843 E.01267
G1 X85.044 Y165.843 E2.50553
G1 X84.652 Y165.705 E.01303
G1 X84.357 Y165.432 E.01261
G1 X84.289 Y165.337 E.00367
G1 X84.157 Y164.954 E.01267
G1 X84.157 Y45.044 E3.7597
G1 X84.224 Y44.843 E.00665
M204 S1000
M73 P2 R178
M73 Q2 S180
G1 X84.574 Y44.968 F10800
M204 S800
G1 F1200
G1 X84.611 Y44.866 E.0034
G1 X84.828 Y44.632 E.01002
G1 X85.079 Y44.534 E.00845
G1 X164.935 Y44.534 E2.50382
G1 X165.185 Y44.644 E.00856
G1 X165.366 Y44.825 E.00802
G1 X165.466 Y45.079 E.00856
G1 X165.466 Y164.921 E3.75755
G1 X165.389 Y165.134 E.00709
G1 X165.172 Y165.368 E.01002
G1 X164.921 Y165.466 E.00845
G1 X85.079 Y165.466 E2.50338
G1 X84.866 Y165.389 E.00709
G1 X84.632 Y165.172 E.01002
G1 X84.534 Y164.921 E.00845
G1 X84.534 Y45.079 E3.75755
G1 X84.554 Y45.025 E.00181
M204 S1000
G1 X84.911 Y45.121 F10800
M204 S800
G1 F1200
G1 X84.94 Y45.052 E.00235
G1 X85.052 Y44.94 E.00495
G1 X85.121 Y44.911 E.00235
G1 X164.879 Y44.911 E2.50075
G1 X164.948 Y44.94 E.00235
G1 X165.06 Y45.052 E.00495
G1 X165.089 Y45.121 E.00235
G1 X165.089 Y164.879 E3.75492
G1 X165.06 Y164.948 E.00235
G1 X164.948 Y165.06 E.00495
G1 X164.879 Y165.089 E.00235
G1 X85.121 Y165.089 E2.50075
G1 X85.052 Y165.06 E.00235
G1 X84.94 Y164.948 E.00495
G1 X84.911 Y164.879 E.00235
G1 X84.911 Y45.181 E3.75304
M204 S1000
; printing object hotspot holder.stl id:0 copy 0
;WIPE_START
G1 F8640
G1 X84.94 Y45.052 E-.03058
G1 X85.052 Y44.94 E-.03645
G1 X85.121 Y44.911 E-.01732
G1 X88.87 Y44.911 E-.86565
;WIPE_END
G1 E-.05 F2100
G1 Z.4 F720
G1 X85.787 Y45.787 F10800
G1 Z.2 F720
G1 E1 F2100
M204 S800
;TYPE:Perimeter
;WIDTH:0.419999
G1 F1200
G1 X164.213 Y45.787 E2.45898
G1 X164.213 Y164.213 E3.71315
G1 X85.787 Y164.213 E2.45898
G1 X85.787 Y45.847 E3.71127
M204 S1000
G1 X85.41 Y45.41 F10800
M204 S800
;TYPE:External perimeter
M73 P2 R177
M73 Q2 S179
G1 F1200
G1 X164.59 Y45.41 E2.48263
G1 X164.59 Y164.59 E3.7368
G1 X85.41 Y164.59 E2.48263
G1 X85.41 Y45.47 E3.73492
M204 S1000
M73 P3 R177
G1 X85.789 Y45.539 F10800
;WIPE_START
M73 Q3 S179
G1 F8640
G1 X89.524 Y45.467 E-.95
;WIPE_END
G1 E-.05 F2100
G1 Z.4 F720
G1 X164.1 Y46.663 F10800
G1 Z.2 F720
G1 E1 F2100
M204 S800
;TYPE:Solid infill
;WIDTH:0.420443
G1 F1200
G1 X163.506 Y46.07 E.02635
G1 X162.972 Y46.07 E.01676
G1 X163.93 Y47.028 E.04252
G1 X163.93 Y47.562 E.01676
G1 X162.438 Y46.07 E.06622
G1 X161.905 Y46.07 E.01676
G1 X163.93 Y48.095 E.08992
G1 X163.93 Y48.629 E.01676
G1 X161.371 Y46.07 E.11362
G1 X160.837 Y46.07 E.01676
G1 X163.93 Y49.163 E.13732
G1 X163.93 Y49.697 E.01676
G1 X160.303 Y46.07 E.16103
G1 X159.769 Y46.07 E.01676
G1 X163.93 Y50.231 E.18473
G1 X163.93 Y50.765 E.01676
G1 X159.235 Y46.07 E.20843
G1 X158.701 Y46.07 E.01676
G1 X163.93 Y51.299 E.23213
G1 X163.93 Y51.833 E.01676
G1 X158.167 Y46.07 E.25583
G1 X157.633 Y46.07 E.01676
G1 X163.93 Y52.367 E.27954
G1 X163.93 Y52.9 E.01676
G1 X157.1 Y46.07 E.30324
G1 X156.566 Y46.07 E.01676
G1 X163.93 Y53.434 E.32694
G1 X163.93 Y53.968 E.01676
G1 X156.032 Y46.07 E.35064
G1 X155.498 Y46.07 E.01676
G1 X163.93 Y54.502 E.37434
G1 X163.93 Y55.036 E.01676
G1 X154.964 Y46.07 E.39804
G1 X154.43 Y46.07 E.01676
G1 X163.93 Y55.57 E.42175
G1 X163.93 Y56.104 E.01676
G1 X153.896 Y46.07 E.44545
G1 X153.362 Y46.07 E.01676
G1 X163.93 Y56.638 E.46915
G1 X163.93 Y57.172 E.01676
G1 X152.828 Y46.07 E.49285
G1 X152.294 Y46.07 E.01676
G1 X163.93 Y57.706 E.51655
G1 X163.93 Y58.239 E.01676
G1 X151.761 Y46.07 E.54025
G1 X151.227 Y46.07 E.01676
G1 X163.93 Y58.773 E.56396
G1 X163.93 Y59.307 E.01676
G1 X150.693 Y46.07 E.58766
G1 X150.159 Y46.07 E.01676
G1 X163.93 Y59.841 E.61136
G1 X163.93 Y60.375 E.01676
G1 X149.625 Y46.07 E.63506
G1 X149.091 Y46.07 E.01676
G1 X163.93 Y60.909 E.65876
G1 X163.93 Y61.443 E.01676
G1 X148.557 Y46.07 E.68247
G1 X148.023 Y46.07 E.01676
G1 X163.93 Y61.977 E.70617
G1 X163.93 Y62.511 E.01676
G1 X147.489 Y46.07 E.72987
G1 X146.955 Y46.07 E.01676
G1 X163.93 Y63.045 E.75357
G1 X163.93 Y63.578 E.01676
G1 X146.422 Y46.07 E.77727
G1 X145.888 Y46.07 E.01676
G1 X163.93 Y64.112 E.80097
G1 X163.93 Y64.646 E.01676
G1 X145.354 Y46.07 E.82468
G1 X144.82 Y46.07 E.01676
G1 X163.93 Y65.18 E.84838
G1 X163.93 Y65.714 E.01676
G1 X144.286 Y46.07 E.87208
G1 X143.752 Y46.07 E.01676
G1 X163.93 Y66.248 E.89578
G1 X163.93 Y66.782 E.01676
G1 X143.218 Y46.07 E.91948
G1 X142.684 Y46.07 E.01676
G1 X163.93 Y67.316 E.94319
G1 X163.93 Y67.85 E.01676
G1 X142.15 Y46.07 E.96689
G1 X141.616 Y46.07 E.01676
M73 P3 R176
G1 X163.93 Y68.384 E.99059
G1 X163.93 Y68.917 E.01676
G1 X141.083 Y46.07 E1.01429
G1 X140.549 Y46.07 E.01676
G1 X163.93 Y69.451 E1.03799
G1 X163.93 Y69.985 E.01676
M73 Q3 S178
G1 X140.015 Y46.07 E1.06169
G1 X139.481 Y46.07 E.01676
G1 X163.93 Y70.519 E1.0854
G1 X163.93 Y71.053 E.01676
G1 X138.947 Y46.07 E1.1091
G1 X138.413 Y46.07 E.01676
G1 X163.93 Y71.587 E1.1328
G1 X163.93 Y72.121 E.01676
G1 X137.879 Y46.07 E1.1565
G1 X137.345 Y46.07 E.01676
G1 X163.93 Y72.655 E1.1802
G1 X163.93 Y73.189 E.01676
G1 X136.811 Y46.07 E1.2039
G1 X136.277 Y46.07 E.01676
G1 X163.93 Y73.723 E1.22761
G1 X163.93 Y74.256 E.01676
G1 X135.744 Y46.07 E1.25131
G1 X135.21 Y46.07 E.01676
G1 X163.93 Y74.79 E1.27501
G1 X163.93 Y75.324 E.01676
G1 X134.676 Y46.07 E1.29871
G1 X134.142 Y46.07 E.01676
G1 X163.93 Y75.858 E1.32241
G1 X163.93 Y76.392 E.01676
G1 X133.608 Y46.07 E1.34612
G1 X133.074 Y46.07 E.01676
G1 X163.93 Y76.926 E1.36982
G1 X163.93 Y77.46 E.01676
G1 X132.54 Y46.07 E1.39352
G1 X132.006 Y46.07 E.01676
G1 X163.93 Y77.994 E1.41722
G1 X163.93 Y78.528 E.01676
G1 X131.472 Y46.07 E1.44092
G1 X130.938 Y46.07 E.01676
G1 X163.93 Y79.062 E1.46462
G1 X163.93 Y79.595 E.01676
G1 X130.405 Y46.07 E1.48833
G1 X129.871 Y46.07 E.01676
G1 X163.93 Y80.129 E1.51203
G1 X163.93 Y80.663 E.01676
G1 X129.337 Y46.07 E1.53573
G1 X128.803 Y46.07 E.01676
G1 X163.93 Y81.197 E1.55943
